common/resources/fonts/svg/op-measure.svg

<?xml version="1.0" encoding="UTF-8"?>
<svg width="898px" height="961px" viewBox="0 0 898 961" version="1.1" xmlns="http://www.w3.org/2000/svg" xmlns:xlink="http://www.w3.org/1999/xlink">
    <!-- Generator: Sketch 48.2 (47327) - http://www.bohemiancoding.com/sketch -->
    <title>Performance icon black</title>
    <desc>Created with Sketch.</desc>
    <defs></defs>
    <g id="Page-1" stroke="none" stroke-width="1" fill="none" fill-rule="evenodd">
        <g id="Performance-icon-black" fill="#000000" fill-rule="nonzero">
            <path d="M323,279 C331.666667,252.333333 339,218 345,176 C351,134 354.833333,101.166667 356.5,77.5 C358.166667,53.8333333 359,39 359,33 C359,24.3333333 362.166667,16.8333333 368.5,10.5 C374.833333,4.16666667 382.333333,1 391,1 L507,1 C515.666667,1 523.166667,4.16666667 529.5,10.5 C535.833333,16.8333333 539,24.3333333 539,33 C539,38.3333333 539.833333,53 541.5,77 C543.166667,101 547,134 553,176 C559,218 566.333333,252.333333 575,279 C579,288.333333 577.666667,297.666667 571,307 C565,316.333333 556.333333,321 545,321 L353,321 C341.666667,321 333,316.333333 327,307 C321,299 319.666667,289.666667 323,279 Z M869,118 C877,118.666667 883.666667,122.166667 889,128.5 C894.333333,134.833333 897,142 897,150 L897,894 C897,902 894.5,909 889.5,915 C884.5,921 878,924.333333 870,925 C862,927 839,930.5 801,935.5 C763,940.5 709.166667,946 639.5,952 C569.833333,958 506.333333,961 449,961 C391.666667,961 328.166667,958 258.5,952 C188.833333,946 135,940.5 97,935.5 C59,930.5 36,927 28,925 C20.6666667,923.666667 14.3333333,920.166667 9,914.5 C3.66666667,908.833333 1,902 1,894 L1,150 C1,142 3.66666667,134.833333 9,128.5 C14.3333333,122.166667 21,118.666667 29,118 C103,109.333333 189,102.666667 287,98 C283.666667,144.666667 278,185.333333 270,220 C208.666667,222.666667 161.666667,226 129,230 L129,816 C276.333333,831.333333 383,839 449,839 C564.333333,839 671,831.333333 769,816 L769,230 C735.666667,226 688.666667,222.666667 628,220 C619.333333,182 614,141.333333 612,98 C709.333333,102.666667 795,109.333333 869,118 Z M297,713 C283.666667,729 267,737 247,737 C233,737 219.666667,732.333333 207,723 C193,712.333333 185,698.166667 183,680.5 C181,662.833333 185.666667,647 197,633 L335,473 C347.666667,457.666667 363.333333,449.666667 382,449 C401.333333,447.666667 417.333333,454 430,468 L508,545 L604,428 C615.333333,414.666667 629.666667,407 647,405 C664.333333,403 680,407.333333 694,418 C707.333333,429.333333 715,443.833333 717,461.5 C719,479.166667 714.666667,494.666667 704,508 L563,681 C551,695.666667 535.666667,703.666667 517,705 C498.333333,706.333333 482,700 468,686 L390,609 L297,713 Z" id="Shape"></path>
        </g>
    </g>
</svg>

<svg width="898" height="961" viewBox="0 0 898 961">
    <path d="M323 279c8.667-26.667 16-61 22-103s9.833-74.833 11.5-98.5C358.167 53.833 359 39 359 33c0-8.667 3.167-16.167 9.5-22.5C374.833 4.167 382.333 1 391 1h116c8.667 0 16.167 3.167 22.5 9.5 6.333 6.333 9.5 13.833 9.5 22.5 0 5.333.833 20 2.5 44s5.5 57 11.5 99 13.333 76.333 22 103c4 9.333 2.667 18.667-4 28-6 9.333-14.667 14-26 14H353c-11.333 0-20-4.667-26-14-6-8-7.333-17.333-4-28zm546-161c8 .667 14.667 4.167 20 10.5s8 13.5 8 21.5v744c0 8-2.5 15-7.5 21s-11.5 9.333-19.5 10c-8 2-31 5.5-69 10.5S709.167 946 639.5 952s-133.167 9-190.5 9-120.833-3-190.5-9S135 940.5 97 935.5 36 927 28 925c-7.333-1.333-13.667-4.833-19-10.5S1 902 1 894V150c0-8 2.667-15.167 8-21.5s12-9.833 20-10.5c74-8.667 160-15.333 258-20-3.333 46.667-9 87.333-17 122-61.333 2.667-108.333 6-141 10v586c147.333 15.333 254 23 320 23 115.333 0 222-7.667 320-23V230c-33.333-4-80.333-7.333-141-10-8.667-38-14-78.667-16-122 97.333 4.667 183 11.333 257 20zM297 713c-13.333 16-30 24-50 24-14 0-27.333-4.667-40-14-14-10.667-22-24.833-24-42.5s2.667-33.5 14-47.5l138-160c12.667-15.333 28.333-23.333 47-24 19.333-1.333 35.333 5 48 19l78 77 96-117c11.333-13.333 25.667-21 43-23s33 2.333 47 13c13.333 11.333 21 25.833 23 43.5s-2.333 33.167-13 46.5L563 681c-12 14.667-27.333 22.667-46 24-18.667 1.333-35-5-49-19l-78-77-93 104z"/>
</svg>
